X:298
%%etbk:tnset id:92,pos:3,rep:3x,ant:
%%etbk:wsite http://www.thesession.org/tunes/display/1732
T: Old Joe's
Z: Piano Box Version by Martin Fleischmann
H: Created 2013-02-19 /  Last Modified 2013-02-19
M: 6/8
L: 1/8
R: jig
K: Dmaj
e|: "D"!5!f!1!AA !1!A!2!F!1!A | {d}!2!B!1!A!2!F !1!A2A | "G"!2!B{d}!2!B!2!B !1!A!2!F!1!A | "A"!2!Bc!4!d !2!ef!4!g |
"D"!3!f!1!AA !1!A!2!F!1!A | {d}!2!B!1!A!2!F !1!A2A | "G"!2!B!1!B!2!B !1!A!2!F!1!A | "A"!2!B!4!dc "D"!4!!3!d3 :|
!4!e|: "D"!5!fAf !4!efe | !3!d!2!B!1!A !3!d2!4!e | !3!f!4!aa !4!a!3!fe | !3!f!4!aa !5!b2a |
!3!f!2!f!3!f !2!efe | !1!d!2!B!1!A !3!d2!4!e | !5!f!1!AA !1!A!2!F!1!A | "A"!2!B!4!dc "D"!4!!3!d3 :|


